icons/user-card.svg

<svg width="24" height="24" viewBox="0 0 24 24" fill="none" xmlns="http://www.w3.org/2000/svg">
<path fill-rule="evenodd" clip-rule="evenodd" d="M2.5 2.50011C2.84 2.16411 3.349 1.99711 4.028 2.00011H20C20.665 1.99511 21.165 2.16111 21.5 2.50011C21.835 2.84011 22.002 3.34711 22 4.02311V20.0001C22 20.6671 21.834 21.1671 21.5 21.5001C21.167 21.8341 20.667 22.0001 20 22.0001H4.01C3.338 22.0001 2.834 21.8331 2.5 21.5001C2.166 21.1681 2 20.6681 2 20.0001V4.01011C1.994 3.34011 2.16 2.83711 2.5 2.50011ZM12 11.0001C12.7956 11.0001 13.5587 10.684 14.1213 10.1214C14.6839 9.55882 15 8.79576 15 8.00011C15 7.20446 14.6839 6.4414 14.1213 5.87879C13.5587 5.31618 12.7956 5.00011 12 5.00011C11.2043 5.00011 10.4413 5.31618 9.87868 5.87879C9.31607 6.4414 9 7.20446 9 8.00011C9 8.79576 9.31607 9.55882 9.87868 10.1214C10.4413 10.684 11.2043 11.0001 12 11.0001ZM9 13.0001C7.434 13.0001 6.136 14.2991 6 16.0001C5.992 16.0981 6 17.9931 8 18.0001C10 18.0071 14 18.0001 16 18.0001C18 18.0001 18.009 16.1021 18 16.0001C17.86 14.3051 16.563 13.0001 15 13.0001H9Z" fill="#3A3A47"/>
</svg>

<svg xmlns="http://www.w3.org/2000/svg" width="24" height="24" viewBox="0 0 24 24">
    <path fill="#3A3A47" fill-rule="evenodd" d="M20 2c.665-.006 1.165.161 1.5.5.335.34.502.847.5 1.523V20c0 .667-.166 1.167-.5 1.5-.333.334-.833.5-1.5.5H4.01c-.672 0-1.176-.167-1.51-.5-.334-.332-.5-.832-.5-1.5V4.01c-.006-.67.16-1.173.5-1.51.34-.336.849-.503 1.528-.5H20zm-5 11H9c-1.566 0-2.864 1.299-3 3v.045c.003.305.138 1.949 2 1.955 2 .007 6 0 8 0s2.009-1.898 2-2c-.14-1.695-1.437-3-3-3zm-3-8a3 3 0 1 0 0 6 3 3 0 0 0 0-6z"/>
</svg>
